X:1
T:Dvmnonia
C:Tim Pillinger
M:2/2
K:Em
L:1/4
V:sticks lines=1 clef=perc
V:music
V:strummed
[V:music]cB| AB A>z | AB A>z | AB cd |cd e2 | \
dc Bc | d2 d2 | cB cd | e2 e2 | 
AB A>z | AB A>z | AB cd |cd e2 | \
dc BA | GF ED | EA cG | A2 A2 ||
ege2| B2B2 | agf2 | ^d2e2 | 
ege2 | B2B2 | fedc | B2 B2 :| edcB | A2 A2 ||
[V:sticks] x |x2 |x2 | x2 | x2 | x2 |x2 | x2 | x2 | x2 | x2 |x2 | x2 | x2 | x2 | x2 | x2 ||
B/2B/2B | "throw"zB| B/2B/2B | "throw"zB|B/2B/2B | "throw"zB|[1B/2B/2B | "throw"zB:|[2B/2B/2B | "throw"zB||

